X: 21724
T: King George
R: strathspey
M: 4/4
K: Adorian
F|E<A,E>D E<A,A,>B,|C>ED>C B,<G,G,>F|E<A,E>D E<A,A,>C|B,>G, (3B,CD E<A,A,>F|
E<A,E>D E<A,A,>B,|C>ED>C B,<G,G,<B,|A,>B,C>D E>DE<G|B,>G, (3B,CD E<A,A,>g||
f<de>B c>BA>a|g>ed<g B<GG>g|f<de>B c>AB>G|A<aa>b a>ge>g|
f<de>B c>de>a|g>ed<g B<GG>A|E>A (3AAA c>AB>G|A>g (3gg^g a<AA2||

